templates/themes/base/img/icon/visitor_no_picture-400.svg

<svg height="400" viewBox="0 0 50 50" width="400" xmlns="http://www.w3.org/2000/svg"><path d="m25.875 3.3125c-4.691406.105469-7.660156 2.003906-8.9375 4.9375-1.214844 2.792969-.960937 6.3125-.09375 9.96875-.464844.546875-.847656 1.316406-.75 2.46875v.0625c.167969 1.21875.535156 2.078125 1 2.6875.226563.296875.5625.304688.84375.46875.15625 1.054688.414063 2.121094.8125 3 .226563.5.460938.933594.71875 1.3125.121094.175781.304688.289063.4375.4375v3.59375c-.320312.769531-1.082031 1.390625-2.28125 2-1.25.632813-2.882812 1.214844-4.53125 1.9375-1.648437.722656-3.316406 1.617188-4.65625 3-1.339844 1.382813-2.300781 3.261719-2.4375 5.75l-.0625 1.0625h40.125l-.0625-1.0625c-.136719-2.488281-1.097656-4.367187-2.4375-5.75-1.339844-1.382812-3.03125-2.277344-4.6875-3s-3.296875-1.300781-4.5625-1.9375c-1.214844-.609375-1.972656-1.222656-2.3125-2v-3.625c.121094-.140625.292969-.238281.40625-.40625.257813-.378906.523438-.8125.75-1.3125.394531-.871094.65625-1.925781.8125-2.96875.320313-.164062.6875-.175781.9375-.5.480469-.628906.761719-1.523437.875-2.75.089844-1.058594-.214844-1.828125-.6875-2.40625.519531-1.601562 1.136719-4.164062.9375-6.78125-.109375-1.4375-.488281-2.871094-1.34375-4.0625-.773437-1.078125-2.023437-1.816406-3.59375-2.15625-1.058594-1.414062-2.980469-1.96875-5.1875-1.96875zm.03125 2h.03125c1.996094.007813 3.273438.570313 3.6875 1.28125l.25.4375.5.0625c1.375.191406 2.128906.722656 2.6875 1.5s.878906 1.863281.96875 3.0625c.183594 2.402344-.511719 5.21875-.96875 6.5l-.3125.84375.78125.40625c-.007812.027344.320313.359375.28125 1.09375v.03125c-.09375.941406-.335937 1.472656-.5 1.6875-.167969.21875-.253906.1875-.21875.1875h-.90625l-.09375.90625c-.085937.898438-.410156 1.925781-.78125 2.75-.1875.414063-.359375.78125-.53125 1.03125s-.375.394531-.28125.34375l-.5.28125v4.625.09375.0625c0-.011719-.179687.429688-.90625.8125-.726562.382813-1.847656.6875-3.09375.6875-1.257812 0-2.371094-.285156-3.09375-.65625s-.90625-.757812-.90625-.84375c.003906-.152344-.03125-.300781-.09375-.4375v-4.34375l-.5-.28125c.09375.050781-.109375-.09375-.28125-.34375s-.375-.617187-.5625-1.03125c-.371094-.824219-.695312-1.851562-.78125-2.75l-.0625-.90625h-.84375c-.035156-.015625-.128906-.066406-.21875-.1875-.175781-.230469-.425781-.769531-.5625-1.6875 0-.019531 0-.011719 0-.03125-.003906-.015625.003906-.015625 0-.03125-.015625-.757812.453125-1.179687.375-1.125l.5625-.40625-.15625-.6875c-.921875-3.644531-1.066406-6.945312-.09375-9.1875.972656-2.234375 2.941406-3.648437 7.125-3.75zm-5 29.0625c.320313.296875.6875.542969 1.09375.75 1.078125.554688 2.457031.875 4 .875 1.554688 0 2.960938-.339844 4.03125-.90625.375-.199219.730469-.421875 1.03125-.6875.65625.6875 1.496094 1.214844 2.375 1.65625 1.449219.726563 3.101563 1.289063 4.65625 1.96875 1.554688.679688 2.980469 1.449219 4.03125 2.53125.835938.863281 1.351563 2.011719 1.625 3.4375h-35.5c.273438-1.425781.789063-2.574219 1.625-3.4375 1.046875-1.082031 2.480469-1.851562 4.03125-2.53125 1.550781-.679687 3.1875-1.238281 4.625-1.96875.886719-.449219 1.730469-.984375 2.375-1.6875z"/></svg>

<?xml version="1.0" encoding="UTF-8"?>
<svg xmlns="http://www.w3.org/2000/svg" xmlns:xlink="http://www.w3.org/1999/xlink" viewBox="0 0 50 50" version="1.1" width="400px" height="400px">
<g id="surface1">
<path style=" " d="M 25.875 3.3125 C 21.183594 3.417969 18.214844 5.316406 16.9375 8.25 C 15.722656 11.042969 15.976563 14.5625 16.84375 18.21875 C 16.378906 18.765625 15.996094 19.535156 16.09375 20.6875 L 16.09375 20.75 C 16.261719 21.96875 16.628906 22.828125 17.09375 23.4375 C 17.320313 23.734375 17.65625 23.742188 17.9375 23.90625 C 18.09375 24.960938 18.351563 26.027344 18.75 26.90625 C 18.976563 27.40625 19.210938 27.839844 19.46875 28.21875 C 19.589844 28.394531 19.773438 28.507813 19.90625 28.65625 L 19.90625 32.25 C 19.585938 33.019531 18.824219 33.640625 17.625 34.25 C 16.375 34.882813 14.742188 35.464844 13.09375 36.1875 C 11.445313 36.910156 9.777344 37.804688 8.4375 39.1875 C 7.097656 40.570313 6.136719 42.449219 6 44.9375 L 5.9375 46 L 46.0625 46 L 46 44.9375 C 45.863281 42.449219 44.902344 40.570313 43.5625 39.1875 C 42.222656 37.804688 40.53125 36.910156 38.875 36.1875 C 37.21875 35.464844 35.578125 34.886719 34.3125 34.25 C 33.097656 33.640625 32.339844 33.027344 32 32.25 L 32 28.625 C 32.121094 28.484375 32.292969 28.386719 32.40625 28.21875 C 32.664063 27.839844 32.929688 27.40625 33.15625 26.90625 C 33.550781 26.035156 33.8125 24.980469 33.96875 23.9375 C 34.289063 23.773438 34.65625 23.761719 34.90625 23.4375 C 35.386719 22.808594 35.667969 21.914063 35.78125 20.6875 C 35.871094 19.628906 35.566406 18.859375 35.09375 18.28125 C 35.613281 16.679688 36.230469 14.117188 36.03125 11.5 C 35.921875 10.0625 35.542969 8.628906 34.6875 7.4375 C 33.914063 6.359375 32.664063 5.621094 31.09375 5.28125 C 30.035156 3.867188 28.113281 3.3125 25.90625 3.3125 Z M 25.90625 5.3125 C 25.917969 5.3125 25.925781 5.3125 25.9375 5.3125 C 27.933594 5.320313 29.210938 5.882813 29.625 6.59375 L 29.875 7.03125 L 30.375 7.09375 C 31.75 7.285156 32.503906 7.816406 33.0625 8.59375 C 33.621094 9.371094 33.941406 10.457031 34.03125 11.65625 C 34.214844 14.058594 33.519531 16.875 33.0625 18.15625 L 32.75 19 L 33.53125 19.40625 C 33.523438 19.433594 33.851563 19.765625 33.8125 20.5 C 33.8125 20.515625 33.8125 20.515625 33.8125 20.53125 C 33.71875 21.472656 33.476563 22.003906 33.3125 22.21875 C 33.144531 22.4375 33.058594 22.40625 33.09375 22.40625 L 32.1875 22.40625 L 32.09375 23.3125 C 32.007813 24.210938 31.683594 25.238281 31.3125 26.0625 C 31.125 26.476563 30.953125 26.84375 30.78125 27.09375 C 30.609375 27.34375 30.40625 27.488281 30.5 27.4375 L 30 27.71875 L 30 32.34375 C 30 32.375 30 32.40625 30 32.4375 L 30 32.5 C 30 32.488281 29.820313 32.929688 29.09375 33.3125 C 28.367188 33.695313 27.246094 34 26 34 C 24.742188 34 23.628906 33.714844 22.90625 33.34375 C 22.183594 32.972656 22 32.585938 22 32.5 C 22.003906 32.347656 21.96875 32.199219 21.90625 32.0625 L 21.90625 27.71875 L 21.40625 27.4375 C 21.5 27.488281 21.296875 27.34375 21.125 27.09375 C 20.953125 26.84375 20.75 26.476563 20.5625 26.0625 C 20.191406 25.238281 19.867188 24.210938 19.78125 23.3125 L 19.71875 22.40625 L 18.875 22.40625 C 18.839844 22.390625 18.746094 22.339844 18.65625 22.21875 C 18.480469 21.988281 18.230469 21.449219 18.09375 20.53125 C 18.09375 20.511719 18.09375 20.519531 18.09375 20.5 C 18.089844 20.484375 18.097656 20.484375 18.09375 20.46875 C 18.078125 19.710938 18.546875 19.289063 18.46875 19.34375 L 19.03125 18.9375 L 18.875 18.25 C 17.953125 14.605469 17.808594 11.304688 18.78125 9.0625 C 19.753906 6.828125 21.722656 5.414063 25.90625 5.3125 Z M 20.90625 34.375 C 21.226563 34.671875 21.59375 34.917969 22 35.125 C 23.078125 35.679688 24.457031 36 26 36 C 27.554688 36 28.960938 35.660156 30.03125 35.09375 C 30.40625 34.894531 30.761719 34.671875 31.0625 34.40625 C 31.71875 35.09375 32.558594 35.621094 33.4375 36.0625 C 34.886719 36.789063 36.539063 37.351563 38.09375 38.03125 C 39.648438 38.710938 41.074219 39.480469 42.125 40.5625 C 42.960938 41.425781 43.476563 42.574219 43.75 44 L 8.25 44 C 8.523438 42.574219 9.039063 41.425781 9.875 40.5625 C 10.921875 39.480469 12.355469 38.710938 13.90625 38.03125 C 15.457031 37.351563 17.09375 36.792969 18.53125 36.0625 C 19.417969 35.613281 20.261719 35.078125 20.90625 34.375 Z "/>
</g>
</svg>
